X:217
T:Polka de Baugy
O:France
M:2/4
L:1/8
K:G
G/2B/2|dG GA/2B/2|cF F2|EF EF|G/2F/2G/2A/2 BG/2B/2|
dG GA/2B/2|cF F2|EF EF|1GBG:|2GB G2|
|:D/2E/2F/2G/2 A/2G/2F/2E/2|Dc c2|D/2E/2F/2G/2 A/2G/2F/2E/2|DB
B2|
D/2E/2F/2G/2 A/2G/2F/2E/2|Dc c2|D/2E/2F/2G/2 A/2G/2F/2E/2|1DB
G2:|2DBG||
